svgs/catogram.svg

<svg width="192" height="192" viewBox="0 0 192 192" fill="none" xmlns="http://www.w3.org/2000/svg">
<path d="M37.4886 81C34.9241 88.1699 34 97.3542 34 109C34 149.071 44.9412 160 96 160C147.059 160 158 149.071 158 109C158 97.3542 157.076 88.1699 154.511 81M37.4886 81L52.6531 42.0236C56.3517 32.5173 69.4725 31.6681 74.3657 40.6183L84 58.2406M37.4886 81C43.0092 65.5653 56.1313 59.4656 84 58.2406M84 58.2406C87.7301 58.0766 91.7244 58 96 58C100.276 58 104.27 58.0766 108 58.2406M154.511 81L153.759 79.0671M154.511 81C154.275 80.3387 154.024 79.6945 153.759 79.0671M153.759 79.0671L139.347 42.0236C135.648 32.5173 122.527 31.6681 117.634 40.6183L108 58.2406M153.759 79.0671C147.839 65.0515 134.675 59.4131 108 58.2406" stroke="black" stroke-width="12"/>
<path d="M158 107L171 103" stroke="black" stroke-width="8" stroke-linecap="round"/>
<path d="M170 139L158 135" stroke="black" stroke-width="8" stroke-linecap="round"/>
<path d="M158 121H172" stroke="black" stroke-width="8" stroke-linecap="round"/>
<path d="M34 107L21 103" stroke="black" stroke-width="8" stroke-linecap="round"/>
<path d="M22 139L34 135" stroke="black" stroke-width="8" stroke-linecap="round"/>
<path d="M34 121H20" stroke="black" stroke-width="8" stroke-linecap="round"/>
<circle cx="72" cy="101" r="8" fill="black"/>
<circle cx="120" cy="101" r="8" fill="black"/>
<path d="M100.526 109H91.4741C88.2793 109 86.3737 112.561 88.1459 115.219L92.6718 122.008C94.2551 124.383 97.7449 124.383 99.3282 122.008L103.854 115.219C105.626 112.561 103.721 109 100.526 109Z" fill="black"/>
</svg>

<svg width="192" height="192" viewBox="0 0 192 192" fill="none" xmlns="http://www.w3.org/2000/svg"><path d="M37.489 81C34.924 88.17 34 97.354 34 109c0 40.071 10.941 51 62 51s62-10.929 62-51c0-11.646-.924-20.83-3.489-28M37.489 81l15.164-38.976c3.699-9.507 16.82-10.356 21.713-1.406L84 58.241M37.489 81C43.009 65.565 56.13 59.466 84 58.24m0 0c3.73-.163 7.724-.24 12-.24s8.27.077 12 .24M154.511 81l-.752-1.933m.752 1.933a36.474 36.474 0 0 0-.752-1.933m0 0-14.412-37.043c-3.699-9.507-16.82-10.356-21.713-1.406L108 58.241m45.759 20.826c-5.92-14.015-19.084-19.654-45.759-20.826" stroke="#000" stroke-width="12"/><path d="m158 107 13-4M170 139l-12-4M158 121h14M34 107l-13-4M22 139l12-4M34 121H20" stroke="#000" stroke-width="8" stroke-linecap="round"/><circle cx="72" cy="101" r="8" fill="#000"/><circle cx="120" cy="101" r="8" fill="#000"/><path d="M100.526 109h-9.052c-3.195 0-5.1 3.561-3.328 6.219l4.526 6.789c1.583 2.375 5.073 2.375 6.656 0l4.526-6.789c1.772-2.658-.133-6.219-3.328-6.219Z" fill="#000"/></svg>
